X:60
T:Easy and Slow
S:Digital Tradition, easynslo
D:Recorded on "Borderlands", David Jones -Easy & Slow, Clancys-Flowers in the Valley
Z:dt:easynslo
M:3/4
L:1/8
Q:1/4=120
W:It was down by Christ Church that I first met with Annie
W:A neat little girl and not a bit shy
W:She told me her father had come from Dungallen
W:And would take her back home in the sweet bye and bye
W:
W:  Chorus:
W:  And what's that to any man, whether or no
W:  Whether I'm easy, or whether I'm true
W:  As I lifted her petticoat, easy and slow
W:  And I tied up my sleeve for to buckle her shoe
W:
W:In city or country, a girl is a jewel
W:And well made for holding, the most of the while
W:But any young fellow is really a fool
W:If he tries at the first time to go a bit far
W:
W:We wandered by Thomas Street, down to the levy
W:The sunlight was gone, and the evening grew dark
W:Along Whitemans Bridge, and by God in a jiffy
W:My arm was around her, beyond in the park
W:
W:  Chorus
W:
W:If you chance for to go the town of Dungallen
W:You can search till your eyeballs are empty and blind
W:Be you sitting or walking or sporting or standing
W:Another like Annie you never will find
W:
W:  Chorus
K:C
GG|c4 c2|d3c dd|e2 a2 a2|ag- g3f|\
e3d c2|c2- d2 e2|d3c A2|G4 zG|
c2 c2 c2|d3c d2|e2 a2 a3/2z/|g4 f2|\
e3d c2|c2 d2 e2|d3c3/2A3/2|A4- Ag-|
ga a2 a2|a2 g2 e2|ag- g2 e2|g6|\
a2 a2 a2|a2 a2 a2|g2 e2 c2|e4 ee|
f2 f2 f2|f2 f2 fz|f2 e3c|e4 GG|\
G2 c2 e2|g3f e2|d2 B2 G2|A6||
